X: 4200
T: Blueball, The
R: reel
M: 4/4
K: Dmajor
A,DFD CDEG|FDFA dAFD|G2 BG FGAF|GEFD EDCE|
D2 FD CDEG|FDFA dAFD|G2 BG FGAF|GECE D2 D2:|
|:fgaf gfec|dcde fdAF|G2 BG FGAB|gfed cdec|
dfaf gfec|dcde fdAF|G2 BG FGAF|GECE D2 D2:|

